X: 1
T: Is\"a-Kullan jenkka
T: "Dear Dad Schottische"
O: from Topi & Aili M\"akel\"a
R: shottish
Z: 2019 John Chambers <jc:trillian.mit.edu>
M: 2/4
L: 1/16
K: D
|: "D"fedc edcB | A2Ad f2f2 |\
[1,3 "A7"g2gf e2e2 | "D"a2ag f2d2 :|\
[2 "A7"gggf e2c2 | "D"d2d2 d4 :|
|: "D"A2Ad f2f2 | "A7"A2Ac e2f2 |\
gfed c2Bc |1,3 "D"d2df A4 :|2,4 "D"d2d2 d4 :|
